svg/card_plus_outline.svg

<?xml version="1.0" encoding="UTF-8"?><!DOCTYPE svg PUBLIC "-//W3C//DTD SVG 1.1//EN" "http://www.w3.org/Graphics/SVG/1.1/DTD/svg11.dtd"><svg xmlns="http://www.w3.org/2000/svg" xmlns:xlink="http://www.w3.org/1999/xlink" version="1.1" id="mdi-card-plus-outline" width="24" height="24" viewBox="0 0 24 24"><path d="M21 15V18H24V20H21V23H19V20H16V18H19V15H21M14 18H3V6H19V13H21V6C21 4.89 20.11 4 19 4H3C1.9 4 1 4.89 1 6V18C1 19.11 1.9 20 3 20H14V18Z" /></svg>

<svg xmlns="http://www.w3.org/2000/svg" viewBox="0 0 24 24"><path d="M21 15v3h3v2h-3v3h-2v-3h-3v-2h3v-3zm-7 3H3V6h16v7h2V6c0-1.11-.89-2-2-2H3a2 2 0 0 0-2 2v12a2 2 0 0 0 2 2h11z"/></svg>
